X:1
T:The Wisdom of Trees
C:Greg Wilson, 2005
L:1/8
M:4/4
K:C
"Dm"DEFG A2c2|"G"B2G2 GAB2|"F"A2F2 FGA2|G3d dcBA|
"Dm"DEFG A2c2|"G"B2G2 GAB2|"F"A2F2 FGA2|"G"G8:|
|:"G"d2dc BcdB|"F"c2cB ABcA|"G"B2GA G2GA|B2c2d2 cB|
"Am"c2cB ABcA|"G"B2G2G4|"F"FGAB "G"c2d2|"C"c8:|
|:"C"e2ed cdec|"G"d2B2B4|"Am"c2cB ABcA|"Em"B2E2E4|
"F"FGA2 A2A2|"G"GAB2B4|"F"FGAB "G"c2d2|"C"c8:|
